archcraft-icons-qogir/files/Qogir/scalable/apps/neovim.svg

<svg width="64" height="64" version="1.1" viewBox="0 0 64 64" xmlns="http://www.w3.org/2000/svg">
 <path d="m32 4.9993c14.912 0 27 12.088 27 27s-12.088 27-27 27-27-12.088-27-27 12.088-27 27-27z" fill="#dcdcdc" stroke="#b6b6b6" stroke-width="2"/>
 <g stroke-width=".99999">
  <path d="m32 4.9993c14.912 0 27 12.088 27 27s-12.088 27-27 27-27-12.088-27-27 12.088-27 27-27z" fill="#dcdcdc"/>
  <path d="m32 8.9992c12.703 0 23 10.297 23 23 0 12.703-10.297 23-23 23-12.703 0-23-10.297-23-23 0-12.703 10.297-23 23-23z" fill="#f2f2f2"/>
  <path d="m44.913 22.608-7.0434-5.8695v30.521l7.0434-5.8695z" fill="#6ba63f"/>
  <path d="m19.087 22.608 7.0434-5.8695v30.521l-7.0434-5.8695z" fill="#42afe6"/>
  <path d="m26.13 16.738c-1.4298 4.0899-1.1586 8.276 0 12.521l11.739 18.001c0.75247-4.1075 1.6188-8.2138 0-12.321z" fill="#96ca6b"/>
  <path d="m37.869 34.938v12.321l5.2826-4.4021z" fill="#569e41"/>
  <path d="m26.13 16.738-5.2919 4.4092 5.2919 8.1116z" fill="#70be63"/>
 </g>
</svg>

<svg xmlns="http://www.w3.org/2000/svg" width="64" height="64"><path fill="#dcdcdc" stroke="#b6b6b6" stroke-width="2" d="M32 5c14.912 0 27 12.087 27 27S46.912 59 32 59 5 46.91 5 32 17.088 5 32 5z"/><path fill="#dcdcdc" d="M32 5c14.912 0 27 12.087 27 27S46.912 59 32 59 5 46.91 5 32 17.088 5 32 5z"/><path fill="#f2f2f2" d="M32 9c12.703 0 23 10.296 23 23 0 12.702-10.297 23-23 23S9 44.701 9 32C9 19.295 19.297 9 32 9z"/><path fill="#6ba63f" d="m44.913 22.608-7.043-5.87V47.26l7.043-5.87z"/><path fill="#42afe6" d="m19.087 22.608 7.043-5.87V47.26l-7.043-5.87z"/><path fill="#96ca6b" d="M26.13 16.738c-1.43 4.09-1.159 8.276 0 12.521L37.869 47.26c.752-4.107 1.619-8.214 0-12.321z"/><path fill="#569e41" d="M37.869 34.938v12.321l5.283-4.402z"/><path fill="#70be63" d="m26.13 16.738-5.292 4.41 5.292 8.11z"/></svg>
